!!!COM: Fanny (Mendelssohn) Hensel
!!!CNT: Deutsch
!!!TXO: Deutsch
!!!OTL: "U2ber allen Gipfeln ist Ruh"
!!!LYR: von Goethe, Johann Wolfgang
!!!OPR: 
!!!OPS: Op. 
!!!ONM: No. 
!!!ENC: Emily Thomas
!!!YOR: Hensel: Ausgewa2hlte Lieder fu2r Singstimme und Klavier
!!!YOR: Breitkopf & Hartel, 1994 vol. 2
!!!ODT: 1835/
!!NB: Vocal melody and text encoded.
**kern	**silbe
=1-	=1
*clefG2	*
*k[f#c#g#d#]	*
*M2/4	*
*MM60	*
{[4b	{U2-
12b]	|
12cc#	|
12b	-ber
=2	=2
[4d#	al-
12d#]	|
12e	|
12d#	-len
=3	=3
[4a	Gip-
12a]	|
12b	-feln
12a	ist
=4	=4
4g#}	Ruh,}
4r	.
=5	=5
8r	.
{8g#	{in
8a	al-
8g#	-len
=6	=6
4.cc#	Wip-
8b	-feln
=7	=7
8a	spu2-
8g#	|
8f#	-rest
8e	|
=8	=8
4.d#	du
8b	kaum
=9	=9
4e	ei-
4a	-nen
=10	=10
2g#	Hauch;
=11	=11
[2f#	|
=12	=12
4f#]}	|}
{4B	{die
=13	=13
4gn	Vo2g-
4gn	-lein
=14	=14
8a	schwei-
8gn	|
8f#	-gen
8e	im
=15	=15
2b	Wal-
=16	=16
4f#}	-de.}
4r	.
=17	=17
{4gn	{War-
8gn	-te
8gn	nur,
=18	=18
8a	bal-
8gn	|
8f#	-de,
8e	|
=19	=19
4.ccn	bal-
8a	|
=20	=20
4f#}	-de,}
4r	.
=21	=21
{2b	bal-
=22	=22
2a	-de
=23	=23
[2g#	ru-
=24	=24
2g#_	|
=25	=25
4g#]	|
4cc#	|
=26	=26
4a	|
4f#	|
=27	=27
2g#	|
=28	=28
4g#	-hest
4f#	du
=29	=29
4e}	auch,}
4r	.
=30	=30
2r	.
=31	=31
{2e	{bal-
=32	=32
2e	-de
=33	=33
2e	ru-
=34	=34
4e	-hest
4a	du
=35	=35
[2g#	auch.
=36	=36
2g#]}	|}
==	==
*-	*-
